icons/lines/gallery-favorite.svg

<svg xmlns="http://www.w3.org/2000/svg" width="24" height="24" viewBox="0 0 24 24" fill="none" stroke="currentColor" stroke-width="2" stroke-linecap="round" stroke-linejoin="round" >
  <path d="M9 10C10.1046 10 11 9.10457 11 8C11 6.89543 10.1046 6 9 6C7.89543 6 7 6.89543 7 8C7 9.10457 7.89543 10 9 10Z"/>
  <path d="M12 2H9C4 2 2 4 2 9V15C2 20 4 22 9 22H15C20 22 22 20 22 15V11"/>
  <path d="M16.1201 5.10999C15.7901 4.06999 16.1801 2.77999 17.2601 2.42999C17.8301 2.24999 18.5401 2.39999 18.9401 2.94999C19.3201 2.37999 20.0501 2.23999 20.6201 2.42999C21.7101 2.77999 22.1001 4.06999 21.7701 5.10999C21.2501 6.74999 19.4501 7.60999 18.9501 7.60999C18.4401 7.60999 16.6501 6.76999 16.1201 5.10999Z"/>
  <path d="M2.66992 18.95L7.59992 15.64C8.38992 15.11 9.52992 15.17 10.2399 15.78L10.5699 16.07C11.3499 16.74 12.6099 16.74 13.3899 16.07L17.5499 12.5C18.3299 11.83 19.5899 11.83 20.3699 12.5L21.9999 13.9"/>
  </svg>

<svg xmlns="http://www.w3.org/2000/svg" width="24" height="24" viewBox="0 0 24 24" fill="none" stroke="currentColor" stroke-width="2" stroke-linecap="round" stroke-linejoin="round">
  <path d="M12 2H9C4 2 2 4 2 9v6c0 5 2 7 7 7h6c5 0 7-2 7-7v-4" />
  <path d="M16.12 5.11c-.33-1.04.06-2.33 1.14-2.68.57-.18 1.28-.03 1.68.52.38-.57 1.11-.71 1.68-.52 1.09.35 1.48 1.64 1.15 2.68-.52 1.64-2.32 2.5-2.82 2.5-.51 0-2.3-.84-2.83-2.5" />
  <path d="m2.67 18.95 4.93-3.31c.79-.53 1.93-.47 2.64.14l.33.29c.78.67 2.04.67 2.82 0l4.16-3.57c.78-.67 2.04-.67 2.82 0L22 13.9" />
  <circle cx="9" cy="8" r="2" />
</svg>
